X: 103
T:Modal Hornpipe. WI.103
M:C|
L:1/8
Q:180
S:Wm Irwin, Folio MS, c1850. AGG's Transcription
R:Hornipe
O:England
A:Lake District
Z:vmp.Chris Partington.2005
K:Gm
D2|GABG ABcA|d2d2 cAFA|B2GB A2FA|GABG cAF2|!
GABG ABcA|d2d2 cAFA|B2GA BAGF|D2G2G2:|!
|:f2|gfdf gfdf|g^fga gbag|fcAB fcAB|defd cAF2|!
GABG ABcA|d2d2 cAF2|B2GA BAGF|D2G2G2:|]
